img/heart.svg

<svg width="20" height="18" viewBox="0 0 20 18" fill="none" xmlns="http://www.w3.org/2000/svg">
<path d="M7.87879 1.2L9.69697 2.4L10.303 1.2L10.9091 0.6L13.3333 0H15.7576L17.5758 1.2L18.7879 3L20 5.4L19.3939 8.4L16.9697 12.6L9.69697 18L7.27273 16.2L4.24242 13.8L2.42424 12L1.21212 10.2L0 7.8V5.4L0.606061 2.4L2.42424 0.6L5.45455 0L7.87879 1.2Z" fill="#FF2C2C"/>
</svg>

<svg width="20" height="18" fill="none" xmlns="http://www.w3.org/2000/svg"><path d="M7.879 1.2l1.818 1.2.606-1.2.606-.6 2.424-.6h2.425l1.818 1.2L18.788 3 20 5.4l-.606 3-2.424 4.2L9.697 18l-2.424-1.8-3.03-2.4-1.82-1.8-1.212-1.8L0 7.8V5.4l.606-3L2.424.6l3.03-.6L7.88 1.2z" fill="#FF2C2C"/></svg>
